icon-themes/sifr_svg/cmd/sc_grafgamma.svg

<svg viewBox="0 0 16 16" xmlns="http://www.w3.org/2000/svg"><path d="m1 1v14h14v-14zm2 2h9.6c-1.8 4.75-4.47 8.3-9.6 9.73zm10 3.9v6.1h-5.7c2.5-1.5 4.3-3.6 5.7-6.1z" fill="#555753"/></svg>

<svg xmlns="http://www.w3.org/2000/svg" viewBox="0 0 16 16">
  <path
     style="fill:#555753"
     d="M 1 1 L 1 15 L 15 15 L 15 1 L 1 1 z M 3 3 L 12.6 3 C 10.8 7.75 8.13 11.3 3 12.73 L 3 3 z M 13 6.9 L 13 13 L 7.3 13 C 9.8 11.5 11.6 9.4 13 6.9 z "
     />
</svg>
